X:8816
T:La balance
A:Normandie
O:France
M:2/4
L:1/8
Q:1/4=160
K:G
D|d3>d ce|dB A/2B/2c|
B2 GB|AG/2A/2DD|d>d ce|
dB A/2B/2c|B2 G/2B/2A/2D/2|G2 z|
|:D|AA/2B/2cA|B/2c/2ddD|AA/2B/2cA|
B/2c/2dd:||D|AA/2B/2cA|B/2c/2d Ac|
B/2c/2d Ac|B/2c/2ddD|AA/2B/2cA|G4||
